X:1
T:Archie Menzie's
S:Bernie Waugh
R:Reel
M:4/4
L:1/8
K:F
|:C|\
"F"F2CF AFEF|Acde fcAF|"Gm"G2DG BGDG|Bdef "C7"gecA|
"F"F2CF AFEF|Acde fcAF|"Bb"BdGB "F"AcFA|"C7"GECE "F"F3:|
|:e|\
"F"f2cf afef|cfag "Dm"fedc|"Gm"g2dg bg^fg|dgba "C7"gfed|
"F"cfef afef|cfag "Dm"fedc|"Bb"BdGB "F"AcFA|"C7"GECE "F"F3:|

